%
(Header)
(Generated by gcodetools from Inkscape.)
(Using default header. To add your own header create file "header" in the output dir.)
M3
(Header end.)
G21 (All units in mm)

(Start cutting path id: path3336)
(Change tool to Default tool)

G00 Z5.000000
G00 X78.215871 Y176.590477

G01 Z-0.125000 F100.0(Penetrate)
G02 X75.083402 Y175.032194 Z-0.125000 I-2.125660 J0.345419 F400.000000
G02 X72.840210 Y177.464020 Z-0.125000 I2.323954 J4.394197
G02 X74.051109 Y184.265283 Z-0.125000 I5.773188 J2.480566
G02 X79.962957 Y187.341800 Z-0.125000 I7.406818 J-7.014597
G02 X90.187821 Y183.779781 Z-0.125000 I1.710542 J-11.546216
G02 X94.342859 Y173.969849 Z-0.125000 I-11.250680 J-10.550182
G02 X88.525230 Y160.259371 Z-0.125000 I-17.125360 J-0.822875
G02 X74.721704 Y155.087830 Z-0.125000 I-13.735627 J15.654715
G02 X57.500599 Y163.131179 Z-0.125000 I0.073731 J22.615043
G02 X51.337563 Y180.958190 Z-0.125000 I20.084886 J16.922440
G02 X61.593747 Y201.701994 Z-0.125000 I28.061939 J-0.967087
G02 X83.457128 Y208.844450 Z-0.125000 I20.108103 J-24.518186
G02 X107.730346 Y196.382110 Z-0.125000 I-1.856466 J-33.485842
G02 X115.845506 Y170.475681 Z-0.125000 I-28.950248 J-23.292880
G02 X101.180906 Y142.668933 Z-0.125000 I-38.896171 J2.742640
G02 X71.227533 Y133.585181 Z-0.125000 I-26.477114 J33.380404
G02 X39.884557 Y150.449568 Z-0.125000 I3.626376 J44.297860
G02 X29.834916 Y184.452361 Z-0.125000 I37.808794 J29.661016
G02 X48.897429 Y219.333434 Z-0.125000 I49.693753 J-4.508275
G02 X86.951298 Y230.347097 Z-0.125000 I32.844721 J-42.235708
G02 X125.371814 Y209.087629 Z-0.125000 I-5.388778 J-55.085582
G02 X137.348153 Y166.981510 Z-0.125000 I-46.661417 J-36.028300
G02 X113.892588 Y125.020549 Z-0.125000 I-60.474439 J6.268189
G02 X67.733362 Y112.082534 Z-0.125000 I-39.211808 J51.086162
G00 Z5.000000

(End cutting path id: path3336)


(Footer)
M5
G00 X0.0000 Y0.0000
M2
(Using default footer. To add your own footer create file "footer" in the output dir.)
(end)
%