%
(Header)
(Generated by gcodetools from Inkscape.)
(Using default header. To add your own header create file "header" in the output dir.)
M3
(Header end.)
G21 (All units in mm)

(Start cutting path id: path3712)
(Change tool to Default tool)

G00 Z5.000000
G00 X37.566149 Y101.254971

G01 Z-0.125000 F100.0(Penetrate)
G01 X47.935885 Y101.254971 Z-0.125000 F400.000000
G01 X61.061699 Y66.252800 Z-0.125000
G01 X74.256415 Y101.254971 Z-0.125000
G01 X84.626154 Y101.254971 Z-0.125000
G01 X84.626154 Y49.819694 Z-0.125000
G01 X77.839314 Y49.819694 Z-0.125000
G01 X77.839314 Y94.984896 Z-0.125000
G01 X64.575696 Y59.707118 Z-0.125000
G01 X57.582153 Y59.707118 Z-0.125000
G01 X44.318536 Y94.984896 Z-0.125000
G01 X44.318536 Y49.819694 Z-0.125000
G01 X37.566149 Y49.819694 Z-0.125000
G01 X37.566149 Y101.254971 Z-0.125000
G01 X37.566149 Y101.254971 Z-0.125000
G00 Z5.000000

(End cutting path id: path3712)


(Footer)
M5
G00 X0.0000 Y0.0000
M2
(Using default footer. To add your own footer create file "footer" in the output dir.)
(end)
%