%
(Header)
(Generated by gcodetools from Inkscape.)
(Using default header. To add your own header create file "header" in the output dir.)
M3
(Header end.)
G21 (All units in mm)

(Start cutting path id: path3961)
(Change tool to Default tool)

G00 Z5.000000
G00 X153.779142 Y39.434851

G01 Z-0.125000 F100.0(Penetrate)
G02 X152.028124 Y38.370849 Z-0.125000 I-4.573003 J5.552932 F400.000000
G02 X150.674697 Y38.094295 Z-0.125000 I-1.353426 J3.173487
G02 X149.351501 Y38.902508 Z-0.125000 I0.000000 J1.487267
G02 X148.558031 Y42.186517 Z-0.125000 I6.399182 J3.284009
G01 X148.558031 Y55.944851 Z-0.125000
G03 X148.108578 Y60.875326 Z-0.125000 I-27.268272 J-0.000000
G03 X147.146920 Y63.353184 Z-0.125000 I-6.979149 J-1.283074
G03 X144.092695 Y66.029427 Z-0.125000 I-5.811682 J-3.551584
G03 X138.398031 Y67.233740 Z-0.125000 I-5.694664 J-12.861625
G03 X129.312102 Y64.491501 Z-0.125000 I0.000000 J-16.423435
G03 X126.544697 Y59.331517 Z-0.125000 I3.426838 J-5.159983
G03 X127.433303 Y57.186234 Z-0.125000 I3.033889 J-0.000000
G03 X129.578586 Y56.297628 Z-0.125000 I2.145283 J2.145283
G03 X131.869698 Y57.209125 Z-0.125000 I0.000000 J3.335186
G03 X132.753586 Y59.260962 Z-0.125000 I-1.939600 J2.051837
G03 X132.721198 Y59.670153 Z-0.125000 I-2.601086 J0.000000
G02 X132.612475 Y60.389851 Z-0.125000 I44.716513 J7.123303
G02 X132.446618 Y61.347379 Z-0.125000 I10.062111 J2.236025
G02 X132.400808 Y62.083184 Z-0.125000 I5.886438 J0.735805
G02 X133.588598 Y64.335768 Z-0.125000 I2.729852 J-0.000000
G02 X137.480808 Y65.540406 Z-0.125000 I3.892211 J-5.685587
G02 X141.191293 Y63.914014 Z-0.125000 I0.000000 J-5.045783
G02 X142.843031 Y59.684295 Z-0.125000 I-4.589796 J-4.229719
G01 X142.843031 Y55.380406 Z-0.125000
G03 X131.333203 Y50.186451 Z-0.125000 I57.304273 J-142.336419
G03 X127.744142 Y47.760406 Z-0.125000 I7.531501 J-15.009839
G03 X125.900249 Y45.134258 Z-0.125000 I4.927210 J-5.419931
G03 X125.204142 Y41.622073 Z-0.125000 I8.512246 J-3.512185
G03 X127.419517 Y36.237932 Z-0.125000 I7.650364 J0.000000
G03 X132.612475 Y34.072628 Z-0.125000 I5.192958 J5.144375
G03 X136.587100 Y35.018470 Z-0.125000 I0.000000 J8.824019
G03 X142.913586 Y39.223184 Z-0.125000 I-14.370297 J28.483633
G03 X144.568814 Y35.374601 Z-0.125000 I6.828414 J0.656578
G03 X147.429142 Y34.072628 Z-0.125000 I2.860328 J2.490967
G03 X150.241662 Y34.806532 Z-0.125000 I0.000000 J5.756122
G03 X153.779142 Y37.600406 Z-0.125000 I-6.999760 J12.499227
G01 X153.779142 Y39.434851 Z-0.125000
G01 X153.779142 Y39.434851 Z-0.125000
G00 Z5.000000

(End cutting path id: path3961)


(Start cutting path id: path3961)
(Change tool to Default tool)

G00 Z5.000000
G00 X142.843031 Y43.456517

G01 Z-0.125000 F100.0(Penetrate)
G02 X142.282187 Y41.123068 Z-0.125000 I-5.134701 J0.000000 F400.000000
G02 X141.008586 Y39.787628 Z-0.125000 I-2.874784 J1.466632
G02 X138.166877 Y38.524084 Z-0.125000 I-7.157624 J12.270213
G02 X135.858031 Y38.164851 Z-0.125000 I-2.308846 J7.240033
G02 X132.848517 Y39.587673 Z-0.125000 I0.000000 J3.894229
G02 X131.413031 Y43.597628 Z-0.125000 I4.883055 J4.009955
G01 X131.413031 Y43.879851 Z-0.125000
G02 X133.352861 Y48.118817 Z-0.125000 I5.601462 J0.000000
G02 X142.843031 Y53.687073 Z-0.125000 I19.886739 J-23.022311
G01 X142.843031 Y43.456517 Z-0.125000
G01 X142.843031 Y43.456517 Z-0.125000
G00 Z5.000000

(End cutting path id: path3961)


(Start cutting path id: path3959)
(Change tool to Default tool)

G00 Z5.000000
G00 X117.395626 Y56.932628

G01 Z-0.125000 F100.0(Penetrate)
G01 X117.113403 Y66.528184 Z-0.125000 F400.000000
G01 X116.337292 Y66.528184 Z-0.125000
G01 X116.196181 Y66.387073 Z-0.125000
G02 X115.488471 Y65.900638 Z-0.125000 I-4.480692 J5.760889
G02 X115.208403 Y65.822629 Z-0.125000 I-0.280068 J0.463737
G02 X114.556557 Y65.895265 Z-0.125000 I-0.000000 J2.961200
G02 X113.303403 Y66.316517 Z-0.125000 I1.424332 J6.311720
G03 X111.001330 Y66.932752 Z-0.125000 I-4.674857 J-12.855857
G03 X108.364515 Y67.163184 Z-0.125000 I-2.636815 J-14.971201
G03 X101.454520 Y64.512667 Z-0.125000 I0.000000 J-10.332560
G03 X98.768959 Y58.484851 Z-0.125000 I5.422018 J-6.027816
G03 X100.369478 Y53.958738 Z-0.125000 I7.199962 J0.000000
G03 X107.023959 Y48.324851 Z-0.125000 I18.096133 J14.627372
G01 X111.116181 Y45.996517 Z-0.125000
G02 X113.925870 Y43.432164 Z-0.125000 I-4.311936 J-7.545888
G02 X114.785070 Y40.704851 Z-0.125000 I-3.898979 J-2.727313
G02 X113.200658 Y37.224117 Z-0.125000 I-4.615551 J-0.000000
G02 X108.928959 Y35.624851 Z-0.125000 I-4.271699 J4.905300
G02 X105.444601 Y36.323932 Z-0.125000 I-0.000000 J9.032898
G02 X103.002292 Y38.094295 Z-0.125000 I2.538787 J6.072218
G02 X101.522757 Y40.553900 Z-0.125000 I7.023211 J5.899497
G02 X99.968403 Y45.502628 Z-0.125000 I30.047937 J12.156268
G01 X98.839514 Y45.502628 Z-0.125000
G01 X98.839514 Y34.495962 Z-0.125000
G01 X99.756737 Y34.495962 Z-0.125000
G02 X100.471621 Y35.121557 Z-0.125000 I1.629122 J-1.140386
G02 X101.379514 Y35.342628 Z-0.125000 I0.907893 J-1.753726
G02 X102.281547 Y35.270711 Z-0.125000 I-0.000000 J-5.692917
G02 X104.625070 Y34.778184 Z-0.125000 I-3.951395 J-24.623047
G03 X107.773950 Y34.215531 Z-0.125000 I9.778915 J45.634935
G03 X109.775626 Y34.072628 Z-0.125000 I2.001675 J13.947525
G03 X116.948954 Y36.840913 Z-0.125000 I0.000000 J10.678100
G03 X119.723959 Y43.103739 Z-0.125000 I-5.679692 J6.262826
G03 X118.396968 Y47.250131 Z-0.125000 I-7.141520 J0.000000
G03 X113.797292 Y51.499851 Z-0.125000 I-12.496196 J-8.911148
G01 X106.177292 Y56.015406 Z-0.125000
G02 X103.870789 Y58.246610 Z-0.125000 I3.222014 J5.638524
G02 X103.143403 Y60.813184 Z-0.125000 I4.164371 J2.566574
G02 X104.615036 Y64.099949 Z-0.125000 I4.406169 J0.000000
G02 X108.576181 Y65.610962 Z-0.125000 I3.961145 J-4.436596
G02 X112.690203 Y63.765929 Z-0.125000 I-0.000000 J-5.509201
G02 X116.337292 Y56.932628 Z-0.125000 I-12.299080 J-10.954220
G01 X117.395626 Y56.932628 Z-0.125000
G01 X117.395626 Y56.932628 Z-0.125000
G00 Z5.000000

(End cutting path id: path3959)


(Start cutting path id: path3959)
(Change tool to Default tool)

G00 Z5.000000
G00 X119.865070 Y82.332629

G01 Z-0.125000 F100.0(Penetrate)
G01 X117.466181 Y82.332629 Z-0.125000 F400.000000
G01 X108.858403 Y75.065406 Z-0.125000
G01 X100.321181 Y82.332629 Z-0.125000
G01 X97.922292 Y82.332629 Z-0.125000
G01 X106.671181 Y70.549851 Z-0.125000
G01 X111.045626 Y70.549851 Z-0.125000
G01 X119.865070 Y82.332629 Z-0.125000
G01 X119.865070 Y82.332629 Z-0.125000
G00 Z5.000000

(End cutting path id: path3959)


(Start cutting path id: path3957)
(Change tool to Default tool)

G00 Z5.000000
G00 X87.949705 Y67.233740

G01 Z-0.125000 F100.0(Penetrate)
G01 X77.013593 Y63.353184 Z-0.125000 F400.000000
G01 X77.013593 Y62.294851 Z-0.125000
G01 X77.578038 Y62.365406 Z-0.125000
G02 X78.952861 Y62.535531 Z-0.125000 I2.710013 J-16.260075
G02 X79.976927 Y62.577073 Z-0.125000 I1.024066 J-12.601663
G02 X81.433884 Y61.718148 Z-0.125000 I-0.000000 J-1.665149
G02 X82.305260 Y58.343740 Z-0.125000 I-6.098018 J-3.374408
G01 X82.305260 Y41.974851 Z-0.125000
G02 X80.658816 Y37.712903 Z-0.125000 I-6.339413 J0.000000
G02 X76.731371 Y35.836517 Z-0.125000 I-4.260523 J3.869220
G01 X76.731371 Y34.778184 Z-0.125000
G01 X93.453038 Y34.778184 Z-0.125000
G01 X93.453038 Y35.836517 Z-0.125000
G02 X89.795708 Y37.704380 Z-0.125000 I0.401577 J5.300810
G02 X88.231927 Y41.974851 Z-0.125000 I5.049143 J4.270471
G01 X88.231927 Y67.022073 Z-0.125000
G01 X87.949705 Y67.233740 Z-0.125000
G01 X87.949705 Y67.233740 Z-0.125000
G00 Z5.000000

(End cutting path id: path3957)


(Start cutting path id: path3957)
(Change tool to Default tool)

G00 Z5.000000
G00 X83.081371 Y70.549851

G01 Z-0.125000 F100.0(Penetrate)
G01 X93.946927 Y77.393740 Z-0.125000 F400.000000
G03 X95.624450 Y78.973152 Z-0.125000 I-3.037546 J4.906805
G03 X96.063594 Y80.357073 Z-0.125000 I-1.961080 J1.383921
G03 X95.376339 Y81.920877 Z-0.125000 I-2.122794 J-0.000000
G03 X93.594149 Y82.614851 Z-0.125000 I-1.782190 J-1.941427
G03 X92.375749 Y82.302079 Z-0.125000 I-0.000000 J-2.529521
G03 X90.630816 Y80.992073 Z-0.125000 I3.728293 J-6.783232
G01 X80.259149 Y70.549851 Z-0.125000
G01 X83.081371 Y70.549851 Z-0.125000
G01 X83.081371 Y70.549851 Z-0.125000
G00 Z5.000000

(End cutting path id: path3957)


(Start cutting path id: path3955)
(Change tool to Default tool)

G00 Z5.000000
G00 X60.456189 Y75.206517

G01 Z-0.125000 F100.0(Penetrate)
G01 X60.456189 Y43.244851 Z-0.125000 F400.000000
G02 X60.118886 Y39.233294 Z-0.125000 I-24.023479 J0.000000
G02 X59.336119 Y37.618045 Z-0.125000 I-3.163521 J0.535783
G02 X57.809640 Y36.703002 Z-0.125000 I-2.263332 J2.044941
G02 X54.035633 Y36.118739 Z-0.125000 I-5.110234 J20.528118
G01 X54.035633 Y34.778184 Z-0.125000
G01 X73.791189 Y34.778184 Z-0.125000
G01 X73.791189 Y36.118739 Z-0.125000
G02 X69.403483 Y38.153394 Z-0.125000 I0.461955 J6.744542
G02 X67.652855 Y42.468739 Z-0.125000 I4.443410 J4.315346
G01 X67.652855 Y73.795406 Z-0.125000
G02 X69.385891 Y78.068505 Z-0.125000 I6.134549 J0.000000
G02 X73.791189 Y80.145406 Z-0.125000 I4.964477 J-4.819638
G01 X73.791189 Y81.485962 Z-0.125000
G01 X59.750633 Y81.485962 Z-0.125000
G01 X44.157855 Y45.855406 Z-0.125000
G01 X27.859523 Y81.485962 Z-0.125000
G01 X13.889523 Y81.485962 Z-0.125000
G01 X13.889523 Y80.145406 Z-0.125000
G02 X18.766200 Y78.032224 Z-0.125000 I-0.474278 J-7.778155
G02 X20.592301 Y73.795406 Z-0.125000 I-4.001965 J-4.236817
G01 X20.592301 Y45.149851 Z-0.125000
G02 X20.218061 Y40.097387 Z-0.125000 I-34.292832 J-0.000000
G02 X19.366398 Y38.067837 Z-0.125000 I-4.409258 J0.656797
G02 X17.645841 Y36.857149 Z-0.125000 I-2.744468 J2.072354
G02 X13.748412 Y36.118739 Z-0.125000 I-5.142848 J16.489883
G01 X13.748412 Y34.778184 Z-0.125000
G01 X30.328966 Y34.778184 Z-0.125000
G01 X30.328966 Y36.118739 Z-0.125000
G02 X25.870865 Y38.521827 Z-0.125000 I0.306802 J5.905945
G02 X23.696745 Y45.149851 Z-0.125000 I9.016037 J6.628023
G01 X23.696745 Y73.583740 Z-0.125000
G01 X41.406188 Y34.778184 Z-0.125000
G01 X42.393966 Y34.778184 Z-0.125000
G01 X60.456189 Y75.206517 Z-0.125000
G01 X60.456189 Y75.206517 Z-0.125000
G00 Z5.000000

(End cutting path id: path3955)


(Footer)
M5
G00 X0.0000 Y0.0000
M2
(Using default footer. To add your own footer create file "footer" in the output dir.)
(end)
%