%
(Header)
(Generated by gcodetools from Inkscape.)
(Using default header. To add your own header create file "header" in the output dir.)
M3
(Header end.)
G21 (All units in mm)

(Start cutting path id: path3807)
(Change tool to Default tool)

G00 Z5.000000
G00 X25.311806 Y114.501579

G01 Z-0.125000 F100.0(Penetrate)
G01 X43.920834 Y114.501579 Z-0.125000 F400.000000
G01 X43.920834 Y118.117551 Z-0.125000
G01 X38.540972 Y118.823107 Z-0.125000
G01 X36.953472 Y120.498801 Z-0.125000
G01 X36.953472 Y168.652968 Z-0.125000
G01 X57.061806 Y114.501579 Z-0.125000
G01 X60.854167 Y114.501579 Z-0.125000
G01 X81.756250 Y169.534913 Z-0.125000
G01 X81.756250 Y119.793246 Z-0.125000
G01 X80.874306 Y118.558524 Z-0.125000
G01 X75.053473 Y118.117551 Z-0.125000
G01 X75.053473 Y114.501579 Z-0.125000
G01 X96.131945 Y114.501579 Z-0.125000
G01 X96.131945 Y118.117551 Z-0.125000
G01 X90.575695 Y118.558524 Z-0.125000
G01 X89.517362 Y119.793246 Z-0.125000
G01 X89.517362 Y168.388385 Z-0.125000
G01 X90.575695 Y169.623107 Z-0.125000
G01 X96.131945 Y170.152274 Z-0.125000
G01 X96.131945 Y173.680052 Z-0.125000
G01 X77.258334 Y173.680052 Z-0.125000
G01 X77.258334 Y170.946024 Z-0.125000
G01 X60.501389 Y127.025190 Z-0.125000
G01 X43.920834 Y171.298802 Z-0.125000
G01 X43.920834 Y173.680052 Z-0.125000
G01 X25.223611 Y173.680052 Z-0.125000
G01 X25.223611 Y170.152274 Z-0.125000
G01 X31.044445 Y169.623107 Z-0.125000
G01 X32.190972 Y168.388385 Z-0.125000
G01 X32.190972 Y120.498801 Z-0.125000
G01 X30.603472 Y118.823107 Z-0.125000
G01 X25.311806 Y118.117551 Z-0.125000
G01 X25.311806 Y114.501579 Z-0.125000
G01 X25.311806 Y114.501579 Z-0.125000
G00 Z5.000000

(End cutting path id: path3807)


(Footer)
M5
G00 X0.0000 Y0.0000
M2
(Using default footer. To add your own footer create file "footer" in the output dir.)
(end)
%