%
(Header)
(Generated by gcodetools from Inkscape.)
(Using default header. To add your own header create file "header" in the output dir.)
M3
(Header end.)
G21 (All units in mm)

(Start cutting path id: path3346)
(Change tool to Default tool)

G00 Z5.000000
G00 X5.019789 Y37.394665

G01 Z-0.125000 F100.0(Penetrate)
G03 X13.351805 Y42.101566 Z-0.125000 I-1.192165 J11.838329 F400.000000
G03 X19.474831 Y56.221983 Z-0.125000 I-26.615899 J19.929205
G02 X23.943571 Y61.494260 Z-0.125000 I6.759493 J-1.199320
G02 X41.558488 Y65.952000 Z-0.125000 I32.875102 J-92.875268
G02 X60.902925 Y68.089802 Z-0.125000 I33.173501 J-211.588312
G03 X74.189836 Y68.973361 Z-0.125000 I-240.696823 J3719.933227
G03 X81.859839 Y74.289489 Z-0.125000 I-7.885926 J19.568783
G03 X91.346235 Y85.318309 Z-0.125000 I-171.099750 J156.765029
G02 X106.171425 Y85.934045 Z-0.125000 I7.682897 J-6.200233
G03 X107.691180 Y84.506857 Z-0.125000 I13.774454 J13.145114
G02 X108.207456 Y82.900693 Z-0.125000 I-1.021171 J-1.214296
G03 X108.474505 Y81.624087 Z-0.125000 I1.435636 J-0.365919
G03 X114.007536 Y78.988395 Z-0.125000 I5.398266 J4.206910
G02 X116.521115 Y77.770547 Z-0.125000 I0.060616 J-3.077767
G02 X116.489858 Y75.217546 Z-0.125000 I-1.657021 J-1.256404
G02 X112.202680 Y71.625494 Z-0.125000 I-10.996388 J8.769947
G02 X106.527152 Y70.669126 Z-0.125000 I-4.232438 J7.798451
G03 X98.996853 Y68.449800 Z-0.125000 I-1.467797 J-8.904710
G03 X95.305051 Y61.027444 Z-0.125000 I7.647270 J-8.432982
G02 X93.432822 Y52.396571 Z-0.125000 I-35.357562 J3.151341
G02 X90.934505 Y45.957481 Z-0.125000 I-102.522901 J36.073884
G03 X88.795959 Y39.413350 Z-0.125000 I36.864887 J-15.668508
G03 X85.921164 Y26.573857 Z-0.125000 I671.808423 J-157.161231
G03 X85.781995 Y13.678750 Z-0.125000 I31.746589 J-6.790925
G03 X87.072217 Y8.907980 Z-0.125000 I32.401548 J6.202924
G03 X87.879028 Y6.744550 Z-0.125000 I60.974263 J21.507051
G02 X86.690237 Y4.557839 Z-0.125000 I-1.511646 J-0.594698
G02 X83.622882 Y5.201203 Z-0.125000 I-0.787089 J3.881176
G02 X82.043884 Y7.986476 Z-0.125000 I4.290820 J4.272719
G03 X80.565524 Y13.607432 Z-0.125000 I-312.917421 J-79.295096
G03 X81.180765 Y8.652075 Z-0.125000 I5.840557 J-1.790727
G02 X82.623985 Y3.613460 Z-0.125000 I-8.540031 J-5.172136
G02 X80.995933 Y2.114219 Z-0.125000 I-3.128896 J1.764137
G02 X78.682650 Y2.085382 Z-0.125000 I-1.189050 J2.585426
G02 X76.294059 Y5.218382 Z-0.125000 I1.584809 J3.685282
G03 X75.479036 Y9.662476 Z-0.125000 I-51.729598 J-7.190155
G02 X74.015833 Y23.702363 Z-0.125000 I57.095169 J13.046507
G03 X73.548144 Y35.963829 Z-0.125000 I-111.413564 J1.890010
G02 X60.465334 Y39.768030 Z-0.125000 I0.331454 J25.538157
G03 X45.209429 Y42.890996 Z-0.125000 I-11.891659 J-19.267013
G03 X44.874779 Y41.822054 Z-0.125000 I0.092532 J-0.615824
G02 X44.827712 Y40.176783 Z-0.125000 I-0.755800 J-0.801687
G02 X43.309182 Y39.874431 Z-0.125000 I-1.034544 J1.231379
G02 X40.285676 Y41.064378 Z-0.125000 I7.063067 J22.382518
G02 X35.303596 Y30.336394 Z-0.125000 I-11.439441 J-1.208351
G03 X27.131484 Y17.597783 Z-0.125000 I10.796843 J-15.917028
G03 X28.669258 Y12.360634 Z-0.125000 I6.167433 J-1.033410
G02 X31.918222 Y6.995073 Z-0.125000 I-12.121258 J-11.006125
G02 X30.511882 Y5.001316 Z-0.125000 I-1.392150 J-0.510891
G02 X27.283771 Y5.759715 Z-0.125000 I0.072319 J7.557216
G02 X22.272252 Y12.299220 Z-0.125000 I4.011988 J8.264598
G02 X21.678549 Y21.426814 Z-0.125000 I36.335540 J6.946545
G02 X25.471791 Y27.330381 Z-0.125000 I7.147583 J-0.422138
G03 X27.821188 Y32.226208 Z-0.125000 I-2.142058 J4.039550
G03 X20.706329 Y26.190941 Z-0.125000 I2.196216 J-9.800495
G02 X15.069810 Y15.301652 Z-0.125000 I-60.963543 J24.652540
G03 X14.352458 Y6.298620 Z-0.125000 I8.050406 J-5.171542
G02 X14.113104 Y3.982319 Z-0.125000 I-2.166291 J-0.946664
G02 X11.736004 Y2.865424 Z-0.125000 I-2.178481 J1.548431
G02 X8.810043 Y3.477647 Z-0.125000 I0.844679 J11.334969
G02 X8.384041 Y4.137160 Z-0.125000 I0.212639 J0.604692
G02 X9.305041 Y11.722875 Z-0.125000 I108.195810 J-9.287546
G02 X10.723162 Y19.223577 Z-0.125000 I122.247447 J-19.228309
G02 X11.552384 Y21.146956 Z-0.125000 I5.432874 J-1.201822
G03 X18.233135 Y35.518895 Z-0.125000 I-40.834162 J27.720367
G03 X20.292108 Y46.380296 Z-0.125000 I-61.576690 J17.298823
G02 X11.712187 Y37.125248 Z-0.125000 I-16.332971 J6.536988
G02 X5.019789 Y37.394665 Z-0.125000 I-3.097621 J6.309483
G01 X5.019789 Y37.394665 Z-0.125000
G00 Z5.000000

(End cutting path id: path3346)


(Footer)
M5
G00 X0.0000 Y0.0000
M2
(Using default footer. To add your own footer create file "footer" in the output dir.)
(end)
%