%
(Header)
(Generated by gcodetools from Inkscape.)
(Using default header. To add your own header create file "header" in the output dir.)
M3
(Header end.)
G21 (All units in mm)

(Start cutting path id: path4309)
(Change tool to Default tool)

G00 Z5.000000
G00 X85.473018 Y142.522230

G01 Z-0.125000 F100.0(Penetrate)
G02 X84.833980 Y142.209540 Z-0.125000 I-0.431775 J0.073070 F400.000000
G02 X84.381086 Y142.707018 Z-0.125000 I0.478413 J0.890429
G02 X84.636372 Y144.088383 Z-0.125000 I1.177232 J0.496711
G02 X85.842597 Y144.706091 Z-0.125000 I1.496767 J-1.436224
G02 X87.916989 Y143.968163 Z-0.125000 I0.332441 J-2.350103
G02 X88.748811 Y141.967861 Z-0.125000 I-2.301784 J-2.130300
G02 X87.547581 Y139.187705 Z-0.125000 I-3.483393 J-0.144508
G02 X84.733861 Y138.154505 Z-0.125000 I-2.772166 J3.201548
G02 X81.242813 Y139.812998 Z-0.125000 I0.045134 J4.598496
G02 X80.013362 Y143.446175 Z-0.125000 I4.106624 J3.414273
G02 X82.126505 Y147.650585 Z-0.125000 I5.704869 J-0.234037
G02 X86.581754 Y149.073816 Z-0.125000 I4.056149 J-5.012355
G02 X91.500901 Y146.507368 Z-0.125000 I-0.422107 J-6.806583
G02 X93.116536 Y141.228704 Z-0.125000 I-5.917820 J-4.697840
G02 X90.097569 Y135.593977 Z-0.125000 I-7.905547 J0.609512
G02 X83.994705 Y133.786781 Z-0.125000 I-5.339423 J6.822896
G02 X77.643846 Y137.257766 Z-0.125000 I0.796407 J9.002757
G02 X75.645637 Y144.185332 Z-0.125000 I7.727616 J5.980946
G02 X79.568306 Y151.252703 Z-0.125000 I10.098796 J-0.982926
G02 X87.320911 Y153.441541 Z-0.125000 I6.622427 J-8.632028
G02 X95.105069 Y149.067424 Z-0.125000 I-1.169153 J-11.194003
G02 X97.484261 Y140.489547 Z-0.125000 I-9.536205 J-7.263886
G02 X92.658869 Y131.988395 Z-0.125000 I-12.288607 J1.355151
G02 X83.255548 Y129.419056 Z-0.125000 I-7.905328 J10.440179
G00 Z5.000000

(End cutting path id: path4309)


(Footer)
M5
G00 X0.0000 Y0.0000
M2
(Using default footer. To add your own footer create file "footer" in the output dir.)
(end)
%