%
(Header)
(Generated by gcodetools from Inkscape.)
(Using default header. To add your own header create file "header" in the output dir.)
M3
(Header end.)
G21 (All units in mm)

(Start cutting path id: path3379)
(Change tool to Default tool)

G00 Z5.000000
G00 X106.764337 Y128.175206

G01 Z-0.125000 F100.0(Penetrate)
G01 X108.583347 Y128.175206 Z-0.125000 F400.000000
G01 X108.583347 Y134.453547 Z-0.125000
G01 X106.604484 Y134.056672 Z-0.125000
G01 X106.604484 Y135.070909 Z-0.125000
G01 X108.572323 Y135.467784 Z-0.125000
G01 X109.685777 Y135.467784 Z-0.125000
G01 X109.685777 Y128.175206 Z-0.125000
G01 X111.504787 Y128.175206 Z-0.125000
G01 X111.504787 Y127.238141 Z-0.125000
G01 X106.764337 Y127.238141 Z-0.125000
G01 X106.764337 Y128.175206 Z-0.125000
G01 X106.764337 Y128.175206 Z-0.125000
G00 Z5.000000

(End cutting path id: path3379)


(Start cutting path id: path3377)
(Change tool to Default tool)

G00 Z5.000000
G00 X130.896541 Y149.578895

G01 Z-0.125000 F100.0(Penetrate)
G01 X132.015507 Y149.578895 Z-0.125000 F400.000000
G01 X132.015507 Y144.579373 Z-0.125000
G03 X132.172332 Y143.312573 Z-0.125000 I5.194897 J-0.000000
G03 X132.495065 Y142.672169 Z-0.125000 I1.590149 J0.399836
G03 X133.058535 Y142.271892 Z-0.125000 I1.030399 J0.853756
G03 X134.049494 Y142.093391 Z-0.125000 I0.990959 J2.661425
G03 X135.035112 Y142.271522 Z-0.125000 I0.000000 J2.815822
G03 X135.598409 Y142.672169 Z-0.125000 I-0.469459 J1.256355
G03 X135.921142 Y143.312573 Z-0.125000 I-1.267416 J1.040240
G03 X136.077966 Y144.579373 Z-0.125000 I-5.038072 J1.266800
G01 X136.077966 Y149.578895 Z-0.125000
G01 X137.196932 Y149.578895 Z-0.125000
G01 X137.196932 Y144.441570 Z-0.125000
G02 X136.954866 Y142.930363 Z-0.125000 I-4.838220 J0.000000
G02 X136.397671 Y142.010711 Z-0.125000 I-2.268756 J0.745962
G02 X135.499447 Y141.435657 Z-0.125000 I-1.660732 J1.605001
G02 X134.049494 Y141.189399 Z-0.125000 I-1.449953 J4.145496
G02 X132.593497 Y141.435592 Z-0.125000 I0.000000 J4.428517
G02 X131.690291 Y142.010711 Z-0.125000 I0.765574 J2.199097
G02 X131.137190 Y142.929303 Z-0.125000 I1.717725 J1.660086
G02 X130.896541 Y144.441570 Z-0.125000 I4.631317 J1.512267
G01 X130.896541 Y149.578895 Z-0.125000
G01 X130.896541 Y149.578895 Z-0.125000
G00 Z5.000000

(End cutting path id: path3377)


(Start cutting path id: path3375)
(Change tool to Default tool)

G00 Z5.000000
G00 X127.076618 Y145.207758

G01 Z-0.125000 F100.0(Penetrate)
G02 X127.401377 Y145.037172 Z-0.125000 I-0.375375 J-1.109062 F400.000000
G02 X127.771150 Y144.689615 Z-0.125000 I-1.339874 J-1.796000
G02 X128.079818 Y144.270869 Z-0.125000 I-2.606174 J-2.244210
G02 X128.454659 Y143.598211 Z-0.125000 I-6.386809 J-3.999835
G01 X129.584648 Y141.349252 Z-0.125000
G01 X128.388512 Y141.349252 Z-0.125000
G01 X127.335690 Y143.460404 Z-0.125000
G03 X126.868225 Y144.236114 Z-0.125000 I-4.837358 J-2.386424
G03 X126.541940 Y144.557323 Z-0.125000 I-1.116851 J-0.808173
G03 X126.135751 Y144.746365 Z-0.125000 I-0.716938 J-1.009563
G03 X125.500145 Y144.827418 Z-0.125000 I-0.635606 J-2.451623
G01 X124.287470 Y144.827418 Z-0.125000
G01 X124.287470 Y141.349252 Z-0.125000
G01 X123.174016 Y141.349252 Z-0.125000
G01 X123.174016 Y149.578895 Z-0.125000
G01 X125.687557 Y149.578895 Z-0.125000
G02 X127.030869 Y149.394313 Z-0.125000 I-0.000000 J-4.980340
G02 X127.793200 Y148.989095 Z-0.125000 I-0.544578 J-1.944200
G02 X128.281663 Y148.303943 Z-0.125000 I-1.112037 J-1.309494
G02 X128.487730 Y147.208668 Z-0.125000 I-2.807738 J-1.095274
G02 X128.384761 Y146.464281 Z-0.125000 I-2.742165 J0.000000
G02 X128.123928 Y145.918825 Z-0.125000 I-1.708422 J0.481862
G02 X127.698918 Y145.499535 Z-0.125000 I-1.350582 J0.943957
G02 X127.076618 Y145.207758 Z-0.125000 I-1.226674 J1.806731
G01 X127.076618 Y145.207758 Z-0.125000
G00 Z5.000000

(End cutting path id: path3375)


(Start cutting path id: path3375)
(Change tool to Default tool)

G00 Z5.000000
G00 X124.287470 Y148.663877

G01 Z-0.125000 F100.0(Penetrate)
G01 X124.287470 Y145.742436 Z-0.125000 F400.000000
G01 X125.687557 Y145.742436 Z-0.125000
G03 X126.448650 Y145.855761 Z-0.125000 I-0.000000 J2.612421
G03 X126.900230 Y146.111752 Z-0.125000 I-0.346359 J1.137290
G03 X127.191914 Y146.540523 Z-0.125000 I-0.741951 J0.818335
G03 X127.313643 Y147.208668 Z-0.125000 I-1.772800 J0.668145
G03 X127.191032 Y147.875334 Z-0.125000 I-1.873713 J0.000000
G03 X126.900230 Y148.294564 Z-0.125000 I-0.992100 J-0.377704
G03 X126.448651 Y148.550553 Z-0.125000 I-0.797935 J-0.881303
G03 X125.687557 Y148.663877 Z-0.125000 I-0.761093 J-2.499117
G01 X124.287470 Y148.663877 Z-0.125000
G01 X124.287470 Y148.663877 Z-0.125000
G00 Z5.000000

(End cutting path id: path3375)


(Start cutting path id: path3373)
(Change tool to Default tool)

G00 Z5.000000
G00 X116.030266 Y149.578895

G01 Z-0.125000 F100.0(Penetrate)
G01 X121.233738 Y149.578895 Z-0.125000 F400.000000
G01 X121.233738 Y148.641829 Z-0.125000
G01 X117.143720 Y148.641829 Z-0.125000
G01 X117.143720 Y146.205459 Z-0.125000
G01 X121.062861 Y146.205459 Z-0.125000
G01 X121.062861 Y145.268391 Z-0.125000
G01 X117.143720 Y145.268391 Z-0.125000
G01 X117.143720 Y142.286318 Z-0.125000
G01 X121.332956 Y142.286318 Z-0.125000
G01 X121.332956 Y141.349252 Z-0.125000
G01 X116.030266 Y141.349252 Z-0.125000
G01 X116.030266 Y149.578895 Z-0.125000
G01 X116.030266 Y149.578895 Z-0.125000
G00 Z5.000000

(End cutting path id: path3373)


(Start cutting path id: path3371)
(Change tool to Default tool)

G00 Z5.000000
G00 X107.988036 Y149.578895

G01 Z-0.125000 F100.0(Penetrate)
G01 X114.949882 Y149.578895 Z-0.125000 F400.000000
G01 X114.949882 Y148.641829 Z-0.125000
G01 X112.028442 Y148.641829 Z-0.125000
G01 X112.028442 Y141.349252 Z-0.125000
G01 X110.909476 Y141.349252 Z-0.125000
G01 X110.909476 Y148.641829 Z-0.125000
G01 X107.988036 Y148.641829 Z-0.125000
G01 X107.988036 Y149.578895 Z-0.125000
G01 X107.988036 Y149.578895 Z-0.125000
G00 Z5.000000

(End cutting path id: path3371)


(Start cutting path id: path3369)
(Change tool to Default tool)

G00 Z5.000000
G00 X101.285258 Y149.578895

G01 Z-0.125000 F100.0(Penetrate)
G01 X108.247104 Y149.578895 Z-0.125000 F400.000000
G01 X108.247104 Y148.641829 Z-0.125000
G01 X105.325664 Y148.641829 Z-0.125000
G01 X105.325664 Y141.349252 Z-0.125000
G01 X104.206698 Y141.349252 Z-0.125000
G01 X104.206698 Y148.641829 Z-0.125000
G01 X101.285258 Y148.641829 Z-0.125000
G01 X101.285258 Y149.578895 Z-0.125000
G01 X101.285258 Y149.578895 Z-0.125000
G00 Z5.000000

(End cutting path id: path3369)


(Start cutting path id: path3367)
(Change tool to Default tool)

G00 Z5.000000
G00 X96.881047 Y148.823730

G01 Z-0.125000 F100.0(Penetrate)
G03 X95.786214 Y148.579945 Z-0.125000 I-0.000000 J-2.580324 F400.000000
G03 X94.951793 Y147.919739 Z-0.125000 I0.985218 J-2.102604
G03 X94.451022 Y146.942947 Z-0.125000 I2.251655 J-1.771115
G03 X94.240726 Y145.455806 Z-0.125000 I5.153120 J-1.487141
G03 X94.450710 Y143.974066 Z-0.125000 I5.332904 J-0.000000
G03 X94.951793 Y142.997385 Z-0.125000 I2.756267 J0.797216
G03 X95.786215 Y142.337177 Z-0.125000 I1.819643 J1.442397
G03 X96.881047 Y142.093391 Z-0.125000 I1.094833 J2.336530
G03 X97.974297 Y142.338090 Z-0.125000 I-0.000000 J2.564515
G03 X98.799275 Y142.997385 Z-0.125000 I-0.971464 J2.061394
G03 X99.300359 Y143.974066 Z-0.125000 I-2.255184 J1.773896
G03 X99.510343 Y145.455806 Z-0.125000 I-5.122920 J1.481740
G03 X99.300046 Y146.942947 Z-0.125000 I-5.363417 J0.000000
G03 X98.799275 Y147.919739 Z-0.125000 I-2.752426 J-0.794324
G03 X97.974297 Y148.579031 Z-0.125000 I-1.796439 J-1.402101
G03 X96.881047 Y148.823730 Z-0.125000 I-1.093250 J-2.319824
G01 X96.881047 Y148.823730 Z-0.125000
G00 Z5.000000

(End cutting path id: path3367)


(Start cutting path id: path3367)
(Change tool to Default tool)

G00 Z5.000000
G00 X96.881047 Y149.727725

G01 Z-0.125000 F100.0(Penetrate)
G02 X98.468373 Y149.407693 Z-0.125000 I-0.000000 J-4.096504 F400.000000
G02 X99.648146 Y148.564659 Z-0.125000 I-1.272859 J-3.028311
G02 X100.386273 Y147.293143 Z-0.125000 I-2.700733 J-2.417804
G02 X100.684432 Y145.455806 Z-0.125000 I-5.512003 J-1.837338
G02 X100.387054 Y143.623279 Z-0.125000 I-5.794953 J0.000000
G02 X99.648146 Y142.346950 Z-0.125000 I-3.469295 J1.156433
G02 X98.469363 Y141.508230 Z-0.125000 I-2.445478 J2.189283
G02 X96.881047 Y141.189399 Z-0.125000 I-1.588316 J3.796831
G02 X95.286728 Y141.508263 Z-0.125000 I0.000000 J4.145234
G02 X94.102922 Y142.346950 Z-0.125000 I1.269405 J3.046575
G02 X93.364796 Y143.618466 Z-0.125000 I2.700731 J2.417802
G02 X93.066636 Y145.455806 Z-0.125000 I5.512016 J1.837340
G02 X93.364796 Y147.293143 Z-0.125000 I5.810162 J0.000000
G02 X94.102922 Y148.564659 Z-0.125000 I3.438860 J-1.146289
G02 X95.287717 Y149.407658 Z-0.125000 I2.460345 J-2.203809
G02 X96.881047 Y149.727725 Z-0.125000 I1.593331 J-3.805865
G01 X96.881047 Y149.727725 Z-0.125000
G00 Z5.000000

(End cutting path id: path3367)


(Start cutting path id: path3365)
(Change tool to Default tool)

G00 Z5.000000
G00 X87.653702 Y149.578895

G01 Z-0.125000 F100.0(Penetrate)
G01 X88.767159 Y149.578895 Z-0.125000 F400.000000
G01 X88.767159 Y142.286318 Z-0.125000
G01 X92.774494 Y142.286318 Z-0.125000
G01 X92.774494 Y141.349252 Z-0.125000
G01 X87.653702 Y141.349252 Z-0.125000
G01 X87.653702 Y149.578895 Z-0.125000
G01 X87.653702 Y149.578895 Z-0.125000
G00 Z5.000000

(End cutting path id: path3365)


(Start cutting path id: path3363)
(Change tool to Default tool)

G00 Z5.000000
G00 X81.954136 Y148.663877

G01 Z-0.125000 F100.0(Penetrate)
G01 X81.954136 Y145.571559 Z-0.125000 F400.000000
G01 X83.354224 Y145.571559 Z-0.125000
G03 X84.084017 Y145.690504 Z-0.125000 I0.000000 J2.298329
G03 X84.555872 Y145.973946 Z-0.125000 I-0.404425 J1.207734
G03 X84.856527 Y146.429552 Z-0.125000 I-0.828087 J0.873458
G03 X84.980309 Y147.120474 Z-0.125000 I-1.866382 J0.690922
G03 X84.856927 Y147.806059 Z-0.125000 I-1.966444 J0.000000
G03 X84.555872 Y148.261490 Z-0.125000 I-1.132050 J-0.421102
G03 X84.084017 Y148.544932 Z-0.125000 I-0.876280 J-0.924292
G03 X83.354224 Y148.663877 Z-0.125000 I-0.729794 J-2.179384
G01 X81.954136 Y148.663877 Z-0.125000
G01 X81.954136 Y148.663877 Z-0.125000
G00 Z5.000000

(End cutting path id: path3363)


(Start cutting path id: path3363)
(Change tool to Default tool)

G00 Z5.000000
G00 X80.840682 Y149.578895

G01 Z-0.125000 F100.0(Penetrate)
G01 X83.354224 Y149.578895 Z-0.125000 F400.000000
G02 X84.664373 Y149.386120 Z-0.125000 I-0.000000 J-4.548450
G02 X85.443329 Y148.950510 Z-0.125000 I-0.595083 J-1.978392
G02 X85.945839 Y148.233070 Z-0.125000 I-1.212012 J-1.383625
G02 X86.154396 Y147.120474 Z-0.125000 I-2.863429 J-1.112596
G02 X85.945019 Y145.997229 Z-0.125000 I-3.117621 J-0.000000
G02 X85.443329 Y145.279417 Z-0.125000 I-1.708496 J0.659869
G02 X84.665411 Y144.847850 Z-0.125000 I-1.368916 J1.550631
G02 X83.354224 Y144.656544 Z-0.125000 I-1.311187 J4.397699
G01 X81.954136 Y144.656544 Z-0.125000
G01 X81.954136 Y141.349252 Z-0.125000
G01 X80.840682 Y141.349252 Z-0.125000
G01 X80.840682 Y149.578895 Z-0.125000
G01 X80.840682 Y149.578895 Z-0.125000
G00 Z5.000000

(End cutting path id: path3363)


(Start cutting path id: path3361)
(Change tool to Default tool)

G00 Z5.000000
G00 X130.268157 Y163.690006

G01 Z-0.125000 F100.0(Penetrate)
G01 X137.230006 Y163.690006 Z-0.125000 F400.000000
G01 X137.230006 Y162.752941 Z-0.125000
G01 X134.308563 Y162.752941 Z-0.125000
G01 X134.308563 Y155.460364 Z-0.125000
G01 X133.189597 Y155.460364 Z-0.125000
G01 X133.189597 Y162.752941 Z-0.125000
G01 X130.268157 Y162.752941 Z-0.125000
G01 X130.268157 Y163.690006 Z-0.125000
G01 X130.268157 Y163.690006 Z-0.125000
G00 Z5.000000

(End cutting path id: path3361)


(Start cutting path id: path3359)
(Change tool to Default tool)

G00 Z5.000000
G00 X129.176750 Y163.419911

G01 Z-0.125000 F100.0(Penetrate)
G01 X129.176750 Y162.334016 Z-0.125000 F400.000000
G03 X128.532557 Y162.609191 Z-0.125000 I-3.564693 J-7.453427
G03 X127.980613 Y162.786014 Z-0.125000 I-1.999209 J-5.290564
G03 X127.413766 Y162.899438 Z-0.125000 I-1.207697 J-4.562450
G03 X126.894718 Y162.934841 Z-0.125000 I-0.519048 J-3.787162
G03 X126.019739 Y162.826717 Z-0.125000 I-0.000000 J-3.594369
G03 X125.489118 Y162.582064 Z-0.125000 I0.384327 J-1.531304
G03 X125.133094 Y162.160311 Z-0.125000 I0.660873 J-0.919026
G03 X124.998537 Y161.578851 Z-0.125000 I1.189055 J-0.581460
G03 X125.093745 Y161.076698 Z-0.125000 I1.371857 J-0.000000
G03 X125.323756 Y160.752030 Z-0.125000 I0.773717 J0.304331
G03 X125.686545 Y160.544578 Z-0.125000 I0.767030 J0.920426
G03 X126.569502 Y160.305543 Z-0.125000 I1.936707 J5.403619
G01 X127.241984 Y160.167740 Z-0.125000
G02 X128.414829 Y159.794483 Z-0.125000 I-0.960089 J-5.046070
G02 X129.077532 Y159.329893 Z-0.125000 I-0.922255 J-2.020468
G02 X129.504653 Y158.664915 Z-0.125000 I-1.313034 J-1.313034
G02 X129.672843 Y157.731369 Z-0.125000 I-2.506749 J-0.933546
G02 X129.443346 Y156.648426 Z-0.125000 I-2.669830 J-0.000000
G02 X128.868069 Y155.917871 Z-0.125000 I-1.721872 J0.764113
G02 X128.003374 Y155.492264 Z-0.125000 I-1.480527 J1.916753
G02 X126.519893 Y155.300510 Z-0.125000 I-1.483481 J5.642526
G02 X125.938653 Y155.331286 Z-0.125000 I-0.000000 J5.504117
G02 X125.274147 Y155.432802 Z-0.125000 I0.775256 J7.300326
G02 X124.625564 Y155.591148 Z-0.125000 I1.632131 J8.092654
G02 X123.912645 Y155.824165 Z-0.125000 I2.878449 J10.013752
G01 X123.912645 Y156.970693 Z-0.125000
G03 X124.606369 Y156.627581 Z-0.125000 I3.648141 J6.503180
G03 X125.241073 Y156.397429 Z-0.125000 I2.248296 J5.209991
G03 X125.898277 Y156.251127 Z-0.125000 I1.382387 J4.660580
G03 X126.519893 Y156.204502 Z-0.125000 I0.621616 J4.120386
G03 X127.436303 Y156.319365 Z-0.125000 I0.000000 J3.713103
G03 X127.991637 Y156.579330 Z-0.125000 I-0.403926 J1.585997
G03 X128.367106 Y157.027035 Z-0.125000 I-0.701291 J0.969436
G03 X128.509780 Y157.648686 Z-0.125000 I-1.282979 J0.621651
G03 X128.403233 Y158.207984 Z-0.125000 I-1.521237 J-0.000000
G03 X128.134952 Y158.596778 Z-0.125000 I-0.973785 J-0.384986
G03 X127.725745 Y158.860506 Z-0.125000 I-0.954037 J-1.030979
G03 X126.916768 Y159.109407 Z-0.125000 I-1.646875 J-3.913550
G01 X126.238771 Y159.241698 Z-0.125000
G02 X125.055429 Y159.610117 Z-0.125000 I1.151570 J5.783411
G02 X124.436300 Y160.018913 Z-0.125000 I0.836715 J1.940461
G02 X124.039355 Y160.616652 Z-0.125000 I1.109953 J1.167766
G02 X123.879571 Y161.490657 Z-0.125000 I2.310482 J0.874005
G02 X124.090469 Y162.482275 Z-0.125000 I2.436692 J0.000000
G02 X124.645759 Y163.210448 Z-0.125000 I1.816055 J-0.809075
G02 X125.483664 Y163.652690 Z-0.125000 I1.522488 J-1.869719
G02 X126.767938 Y163.838836 Z-0.125000 I1.284274 J-4.337225
G02 X127.344507 Y163.813290 Z-0.125000 I0.000000 J-6.519424
G02 X127.947539 Y163.734103 Z-0.125000 I-0.640330 J-7.212023
G02 X128.542568 Y163.606399 Z-0.125000 I-1.345826 J-7.720885
G02 X129.176750 Y163.419911 Z-0.125000 I-2.289845 J-8.958528
G01 X129.176750 Y163.419911 Z-0.125000
G00 Z5.000000

(End cutting path id: path3359)


(Start cutting path id: path3357)
(Change tool to Default tool)

G00 Z5.000000
G00 X117.099623 Y163.690006

G01 Z-0.125000 F100.0(Penetrate)
G01 X122.303095 Y163.690006 Z-0.125000 F400.000000
G01 X122.303095 Y162.752941 Z-0.125000
G01 X118.213077 Y162.752941 Z-0.125000
G01 X118.213077 Y160.316570 Z-0.125000
G01 X122.132218 Y160.316570 Z-0.125000
G01 X122.132218 Y159.379502 Z-0.125000
G01 X118.213077 Y159.379502 Z-0.125000
G01 X118.213077 Y156.397429 Z-0.125000
G01 X122.402313 Y156.397429 Z-0.125000
G01 X122.402313 Y155.460364 Z-0.125000
G01 X117.099623 Y155.460364 Z-0.125000
G01 X117.099623 Y163.690006 Z-0.125000
G01 X117.099623 Y163.690006 Z-0.125000
G00 Z5.000000

(End cutting path id: path3357)


(Start cutting path id: path3355)
(Change tool to Default tool)

G00 Z5.000000
G00 X109.057393 Y163.690006

G01 Z-0.125000 F100.0(Penetrate)
G01 X116.019242 Y163.690006 Z-0.125000 F400.000000
G01 X116.019242 Y162.752941 Z-0.125000
G01 X113.097799 Y162.752941 Z-0.125000
G01 X113.097799 Y155.460364 Z-0.125000
G01 X111.978833 Y155.460364 Z-0.125000
G01 X111.978833 Y162.752941 Z-0.125000
G01 X109.057393 Y162.752941 Z-0.125000
G01 X109.057393 Y163.690006 Z-0.125000
G01 X109.057393 Y163.690006 Z-0.125000
G00 Z5.000000

(End cutting path id: path3355)


(Start cutting path id: path3353)
(Change tool to Default tool)

G00 Z5.000000
G00 X100.320631 Y163.690006

G01 Z-0.125000 F100.0(Penetrate)
G01 X101.434085 Y163.690006 Z-0.125000 F400.000000
G01 X101.434085 Y156.397429 Z-0.125000
G01 X105.441420 Y156.397429 Z-0.125000
G01 X105.441420 Y155.460364 Z-0.125000
G01 X100.320631 Y155.460364 Z-0.125000
G01 X100.320631 Y163.690006 Z-0.125000
G01 X100.320631 Y163.690006 Z-0.125000
G00 Z5.000000

(End cutting path id: path3353)


(Start cutting path id: path3351)
(Change tool to Default tool)

G00 Z5.000000
G00 X90.575145 Y163.690006

G01 Z-0.125000 F100.0(Penetrate)
G01 X92.234301 Y163.690006 Z-0.125000 F400.000000
G01 X94.334432 Y158.089659 Z-0.125000
G01 X96.445587 Y163.690006 Z-0.125000
G01 X98.104743 Y163.690006 Z-0.125000
G01 X98.104743 Y155.460364 Z-0.125000
G01 X97.018851 Y155.460364 Z-0.125000
G01 X97.018851 Y162.686793 Z-0.125000
G01 X94.896672 Y157.042349 Z-0.125000
G01 X93.777704 Y157.042349 Z-0.125000
G01 X91.655525 Y162.686793 Z-0.125000
G01 X91.655525 Y155.460364 Z-0.125000
G01 X90.575145 Y155.460364 Z-0.125000
G01 X90.575145 Y163.690006 Z-0.125000
G01 X90.575145 Y163.690006 Z-0.125000
G00 Z5.000000

(End cutting path id: path3351)


(Start cutting path id: path3349)
(Change tool to Default tool)

G00 Z5.000000
G00 X87.433215 Y156.634450

G01 Z-0.125000 F100.0(Penetrate)
G01 X87.433215 Y158.844823 Z-0.125000 F400.000000
G01 X85.614206 Y158.844823 Z-0.125000
G01 X85.614206 Y159.759841 Z-0.125000
G01 X88.535646 Y159.759841 Z-0.125000
G01 X88.535646 Y156.226552 Z-0.125000
G02 X87.862312 Y155.826901 Z-0.125000 I-2.787526 J3.929402
G02 X87.113511 Y155.532020 Z-0.125000 I-2.233361 J4.573065
G02 X86.327463 Y155.361131 Z-0.125000 I-1.523610 J5.114982
G02 X85.454355 Y155.300510 Z-0.125000 I-0.873108 J6.257284
G02 X83.661662 Y155.623363 Z-0.125000 I0.000000 J5.138527
G02 X82.433694 Y156.424988 Z-0.125000 I1.161911 J3.121218
G02 X81.664273 Y157.682395 Z-0.125000 I2.475503 J2.378898
G02 X81.347799 Y159.566917 Z-0.125000 I5.452678 J1.884523
G02 X81.665069 Y161.456177 Z-0.125000 I5.783652 J-0.000000
G02 X82.433694 Y162.708843 Z-0.125000 I3.217235 J-1.111923
G02 X83.662679 Y163.514683 Z-0.125000 I2.396232 J-2.314409
G02 X85.454355 Y163.838836 Z-0.125000 I1.791676 J-4.789453
G02 X86.252164 Y163.787209 Z-0.125000 I0.000000 J-6.190272
G02 X86.981220 Y163.640397 Z-0.125000 I-0.690353 J-5.311838
G02 X87.686751 Y163.391785 Z-0.125000 I-1.357851 J-4.978832
G02 X88.320674 Y163.056109 Z-0.125000 I-1.897279 J-4.349433
G01 X88.320674 Y161.870996 Z-0.125000
G03 X87.669773 Y162.337892 Z-0.125000 I-3.193755 J-3.765266
G03 X87.008781 Y162.659234 Z-0.125000 I-2.140646 J-3.562754
G03 X86.301789 Y162.856107 Z-0.125000 I-1.415850 J-3.716609
G03 X85.548061 Y162.923818 Z-0.125000 I-0.753728 J-4.161203
G03 X84.149487 Y162.672516 Z-0.125000 I0.000000 J-4.017402
G03 X83.277053 Y162.080459 Z-0.125000 I0.770001 J-2.073468
G03 X82.754304 Y161.148251 Z-0.125000 I1.830734 J-1.639284
G03 X82.521888 Y159.566917 Z-0.125000 I5.263421 J-1.581334
G03 X82.753998 Y157.990978 Z-0.125000 I5.466071 J0.000000
G03 X83.277053 Y157.058887 Z-0.125000 I2.356361 J0.709497
G03 X84.149487 Y156.466830 Z-0.125000 I1.642435 J1.481411
G03 X85.548061 Y156.215528 Z-0.125000 I1.398574 J3.766100
G03 X86.134937 Y156.243121 Z-0.125000 I0.000000 J6.255047
G03 X86.600883 Y156.314746 Z-0.125000 I-0.377840 J4.009329
G03 X87.051335 Y156.451421 Z-0.125000 I-0.720388 J3.184895
G03 X87.433215 Y156.634450 Z-0.125000 I-0.947568 J2.466943
G01 X87.433215 Y156.634450 Z-0.125000
G00 Z5.000000

(End cutting path id: path3349)


(Footer)
M5
G00 X0.0000 Y0.0000
M2
(Using default footer. To add your own footer create file "footer" in the output dir.)
(end)
%