%
(Header)
(Generated by gcodetools from Inkscape.)
(Using default header. To add your own header create file "header" in the output dir.)
M3
(Header end.)
G21 (All units in mm)

(Start cutting path id: path3349)
(Change tool to Default tool)

G00 Z5.000000
G00 X144.366935 Y73.447652

G01 Z-0.125000 F100.0(Penetrate)
G01 X150.282163 Y73.447652 Z-0.125000 F400.000000
G01 X150.282163 Y34.705831 Z-0.125000
G01 X171.571131 Y34.705831 Z-0.125000
G01 X171.571131 Y29.727668 Z-0.125000
G01 X144.366935 Y29.727668 Z-0.125000
G01 X144.366935 Y73.447652 Z-0.125000
G01 X144.366935 Y73.447652 Z-0.125000
G00 Z5.000000

(End cutting path id: path3349)


(Start cutting path id: path3347)
(Change tool to Default tool)

G00 Z5.000000
G00 X92.594038 Y73.447652

G01 Z-0.125000 F100.0(Penetrate)
G01 X101.408315 Y73.447652 Z-0.125000 F400.000000
G01 X112.565257 Y43.695808 Z-0.125000
G01 X123.780765 Y73.447652 Z-0.125000
G01 X132.595042 Y73.447652 Z-0.125000
G01 X132.595042 Y29.727668 Z-0.125000
G01 X126.826231 Y29.727668 Z-0.125000
G01 X126.826231 Y68.118091 Z-0.125000
G01 X115.552156 Y38.131980 Z-0.125000
G01 X109.607644 Y38.131980 Z-0.125000
G01 X98.333569 Y68.118091 Z-0.125000
G01 X98.333569 Y29.727668 Z-0.125000
G01 X92.594038 Y29.727668 Z-0.125000
G01 X92.594038 Y73.447652 Z-0.125000
G01 X92.594038 Y73.447652 Z-0.125000
G00 Z5.000000

(End cutting path id: path3347)


(Start cutting path id: path3345)
(Change tool to Default tool)

G00 Z5.000000
G00 X75.902550 Y35.965013

G01 Z-0.125000 F100.0(Penetrate)
G01 X75.902550 Y47.707622 Z-0.125000 F400.000000
G01 X66.239057 Y47.707622 Z-0.125000
G01 X66.239057 Y52.568652 Z-0.125000
G01 X81.759214 Y52.568652 Z-0.125000
G01 X81.759214 Y33.798049 Z-0.125000
G02 X78.182117 Y31.674903 Z-0.125000 I-14.808719 J20.874938
G02 X74.204119 Y30.108352 Z-0.125000 I-11.864607 J24.294196
G02 X70.028226 Y29.200501 Z-0.125000 I-8.094211 J27.173430
G02 X65.389842 Y28.878452 Z-0.125000 I-4.638384 J33.241752
G02 X55.866167 Y30.593613 Z-0.125000 I-0.000000 J27.298369
G02 X49.342588 Y34.852247 Z-0.125000 I6.172656 J16.581450
G02 X45.255045 Y41.532214 Z-0.125000 I13.151090 J12.637882
G02 X43.573774 Y51.543736 Z-0.125000 I28.967341 J10.011522
G02 X45.259274 Y61.580442 Z-0.125000 I30.725708 J-0.000000
G02 X49.342588 Y68.235225 Z-0.125000 I17.091533 J-5.907075
G02 X55.871567 Y72.516244 Z-0.125000 I12.729968 J-12.295285
G02 X65.389842 Y74.238303 Z-0.125000 I9.518276 J-25.443977
G02 X69.628205 Y73.964040 Z-0.125000 I0.000000 J-32.886118
G02 X73.501318 Y73.184105 Z-0.125000 I-3.667505 J-28.219420
G02 X77.249450 Y71.863346 Z-0.125000 I-7.213745 J-26.450340
G02 X80.617165 Y70.080072 Z-0.125000 I-10.079446 J-23.106650
G01 X80.617165 Y63.784160 Z-0.125000
G03 X77.159251 Y66.264544 Z-0.125000 I-16.966870 J-20.003053
G03 X73.647735 Y67.971675 Z-0.125000 I-11.372198 J-18.927155
G03 X69.891841 Y69.017558 Z-0.125000 I-7.521688 J-19.744425
G03 X65.887660 Y69.377274 Z-0.125000 I-4.004181 J-22.106405
G03 X58.457743 Y68.042232 Z-0.125000 I-0.000000 J-21.342395
G03 X53.822933 Y64.896926 Z-0.125000 I4.090641 J-11.015319
G03 X51.045827 Y59.944572 Z-0.125000 I9.725773 J-8.708702
G03 X49.811119 Y51.543736 Z-0.125000 I27.961899 J-8.400835
G03 X51.044203 Y43.171564 Z-0.125000 I29.038469 J-0.000000
G03 X53.822933 Y38.219830 Z-0.125000 I12.518172 J3.769209
G03 X58.457743 Y35.074524 Z-0.125000 I8.725451 J7.870013
G03 X65.887660 Y33.739482 Z-0.125000 I7.429916 J20.007352
G03 X69.005443 Y33.886069 Z-0.125000 I0.000000 J33.229650
G03 X71.480771 Y34.266583 Z-0.125000 I-2.007260 J21.299210
G03 X73.873808 Y34.992670 Z-0.125000 I-3.827126 J16.919974
G03 X75.902550 Y35.965013 Z-0.125000 I-5.033997 J13.105761
G01 X75.902550 Y35.965013 Z-0.125000
G00 Z5.000000

(End cutting path id: path3345)


(Footer)
M5
G00 X0.0000 Y0.0000
M2
(Using default footer. To add your own footer create file "footer" in the output dir.)
(end)
%