%
(Header)
(Generated by gcodetools from Inkscape.)
(Using default header. To add your own header create file "header" in the output dir.)
M3
(Header end.)
G21 (All units in mm)

(Start cutting path id: path3346)
(Change tool to Default tool)

G00 Z5.000000
G00 X159.657145 Y216.907940

G01 Z-0.125000 F100.0(Penetrate)
G02 X156.956439 Y203.330574 Z-0.125000 I-35.479366 J0.000000 F400.000000
G02 X149.265479 Y191.820239 Z-0.125000 I-32.778661 J13.577366
G02 X137.755144 Y184.129279 Z-0.125000 I-25.087701 J25.087701
G02 X124.177779 Y181.428573 Z-0.125000 I-13.577366 J32.778661
G02 X110.600413 Y184.129279 Z-0.125000 I-0.000000 J35.479366
G02 X99.090078 Y191.820239 Z-0.125000 I13.577366 J32.778661
G02 X91.399118 Y203.330574 Z-0.125000 I25.087701 J25.087701
G02 X88.698412 Y216.907940 Z-0.125000 I32.778661 J13.577366
G02 X91.399118 Y230.485305 Z-0.125000 I35.479366 J0.000000
G02 X99.090078 Y241.995640 Z-0.125000 I32.778661 J-13.577366
G02 X110.600413 Y249.686600 Z-0.125000 I25.087701 J-25.087701
G02 X124.177779 Y252.387306 Z-0.125000 I13.577366 J-32.778661
G02 X149.265479 Y241.995640 Z-0.125000 I-0.000000 J-35.479366
G02 X159.657145 Y216.907940 Z-0.125000 I-25.087701 J-25.087701
G01 X159.657145 Y216.907940 Z-0.125000
G00 Z5.000000

(End cutting path id: path3346)


(Start cutting path id: path3344)
(Change tool to Default tool)

G00 Z5.000000
G00 X52.412697 Y185.460315

G01 Z-0.125000 F100.0(Penetrate)
G02 X51.726341 Y171.177039 Z-0.125000 I-148.962725 J0.000000 F400.000000
G02 X50.050955 Y160.942790 Z-0.125000 I-77.985168 J7.512213
G02 X46.629275 Y152.122019 Z-0.125000 I-32.661242 J7.595638
G02 X44.349205 Y150.787300 Z-0.125000 I-2.280069 J1.280134
G02 X42.069135 Y152.122019 Z-0.125000 I-0.000001 J2.614853
G02 X38.647454 Y160.942790 Z-0.125000 I29.239562 J16.416409
G02 X36.972069 Y171.177039 Z-0.125000 I76.309782 J17.746462
G02 X36.285712 Y185.460315 Z-0.125000 I148.276369 J14.283276
G02 X36.972069 Y199.743591 Z-0.125000 I148.962725 J-0.000000
G02 X38.647454 Y209.977840 Z-0.125000 I77.985168 J-7.512213
G02 X42.069135 Y218.798611 Z-0.125000 I32.661242 J-7.595638
G02 X44.349205 Y220.133330 Z-0.125000 I2.280069 J-1.280134
G02 X46.629275 Y218.798611 Z-0.125000 I0.000001 J-2.614853
G02 X50.050955 Y209.977840 Z-0.125000 I-29.239562 J-16.416409
G02 X51.726341 Y199.743591 Z-0.125000 I-76.309782 J-17.746462
G02 X52.412697 Y185.460315 Z-0.125000 I-148.276369 J-14.283276
G01 X52.412697 Y185.460315 Z-0.125000
G00 Z5.000000

(End cutting path id: path3344)


(Start cutting path id: path3342)
(Change tool to Default tool)

G00 Z5.000000
G00 X121.758733 Y135.466674

G01 Z-0.125000 F100.0(Penetrate)
G02 X120.425188 Y125.858765 Z-0.125000 I-35.278246 J-0.000001 F400.000000
G02 X116.917162 Y118.361424 Z-0.125000 I-24.718470 J6.996462
G02 X111.195528 Y112.943482 Z-0.125000 I-15.373874 J10.505480
G02 X105.228574 Y111.276197 Z-0.125000 I-5.966954 J9.843759
G02 X99.261620 Y112.943482 Z-0.125000 I-0.000000 J11.511044
G02 X93.539986 Y118.361424 Z-0.125000 I9.652240 J15.923422
G02 X90.031960 Y125.858765 Z-0.125000 I21.210444 J14.493803
G02 X88.698415 Y135.466674 Z-0.125000 I33.944701 J9.607909
G02 X94.409285 Y153.946280 Z-0.125000 I32.754196 J-0.000002
G02 X105.228574 Y159.657149 Z-0.125000 I10.819289 J-7.393181
G02 X116.047863 Y153.946280 Z-0.125000 I0.000000 J-13.104051
G02 X121.758733 Y135.466674 Z-0.125000 I-27.043325 J-18.479607
G01 X121.758733 Y135.466674 Z-0.125000
G00 Z5.000000

(End cutting path id: path3342)


(Start cutting path id: path3340)
(Change tool to Default tool)

G00 Z5.000000
G00 X94.342854 Y48.380948

G01 Z-0.125000 F100.0(Penetrate)
G02 X93.116636 Y37.679188 Z-0.125000 I-47.312650 J-0.000002 F400.000000
G02 X89.973631 Y29.565173 Z-0.125000 I-30.073511 J6.983388
G02 X84.605034 Y23.477382 Z-0.125000 I-16.843458 J9.442543
G02 X79.425394 Y21.771422 Z-0.125000 I-5.179640 J7.010242
G02 X74.245754 Y23.477381 Z-0.125000 I-0.000002 J8.716200
G02 X68.877155 Y29.565171 Z-0.125000 I11.474854 J15.530333
G02 X65.734150 Y37.679187 Z-0.125000 I26.930502 J15.097404
G02 X64.507932 Y48.380948 Z-0.125000 I46.086432 J10.701759
G02 X65.734150 Y59.082708 Z-0.125000 I47.312649 J-0.000001
G02 X68.877156 Y67.196723 Z-0.125000 I30.073505 J-6.983389
G02 X74.245754 Y73.284513 Z-0.125000 I16.843451 J-9.442543
G02 X79.425394 Y74.990471 Z-0.125000 I5.179638 J-7.010242
G02 X88.832209 Y69.479825 Z-0.125000 I-0.000001 J-10.784163
G02 X94.342854 Y48.380948 Z-0.125000 I-37.635837 J-21.098878
G01 X94.342854 Y48.380948 Z-0.125000
G00 Z5.000000

(End cutting path id: path3340)


(Start cutting path id: path3338)
(Change tool to Default tool)

G00 Z5.000000
G00 X161.269839 Y65.717458

G01 Z-0.125000 F100.0(Penetrate)
G02 X160.057707 Y47.456759 Z-0.125000 I-138.154347 J0.000003 F400.000000
G02 X157.372965 Y35.213099 Z-0.125000 I-74.667438 J9.956607
G02 X152.178954 Y24.742191 Z-0.125000 I-34.768681 J10.723050
G02 X147.965079 Y22.577776 Z-0.125000 I-4.213878 J3.019772
G02 X143.944327 Y24.596915 Z-0.125000 I-0.000001 J5.012871
G02 X138.557191 Y35.213096 Z-0.125000 I28.149420 J20.959232
G02 X135.786271 Y48.018101 Z-0.125000 I72.837145 J22.463794
G02 X134.660316 Y65.717458 Z-0.125000 I138.548883 J17.699360
G02 X135.786271 Y83.416817 Z-0.125000 I139.674842 J0.000000
G02 X138.557191 Y96.221823 Z-0.125000 I75.608071 J-9.658788
G02 X143.944327 Y106.838005 Z-0.125000 I33.536558 J-10.343051
G02 X147.965079 Y108.857143 Z-0.125000 I4.020751 J-2.993733
G02 X152.178955 Y106.692728 Z-0.125000 I-0.000002 J-5.184186
G02 X157.372965 Y96.221820 Z-0.125000 I-29.574674 J-21.193959
G02 X160.057708 Y83.978158 Z-0.125000 I-71.982701 J-22.200268
G02 X161.269839 Y65.717458 Z-0.125000 I-136.942219 J-18.260700
G01 X161.269839 Y65.717458 Z-0.125000
G00 Z5.000000

(End cutting path id: path3338)


(Start cutting path id: path3336)
(Change tool to Default tool)

G00 Z5.000000
G00 X101.600001 Y78.215870

G01 Z-0.125000 F100.0(Penetrate)
G02 X99.427869 Y71.452887 Z-0.125000 I-11.614416 J-0.000001 F400.000000
G02 X91.798771 Y64.531670 Z-0.125000 I-19.856603 J14.222178
G02 X81.571764 Y60.450219 Z-0.125000 I-19.127618 J33.074839
G02 X68.136508 Y58.863488 Z-0.125000 I-13.435256 J56.086519
G02 X41.752736 Y65.943209 Z-0.125000 I0.000003 J52.701660
G02 X34.673018 Y78.215870 Z-0.125000 I7.097443 J12.272660
G02 X41.752736 Y90.488531 Z-0.125000 I14.177160 J0.000001
G02 X68.136508 Y97.568251 Z-0.125000 I26.383775 J-45.621940
G02 X81.571764 Y95.981521 Z-0.125000 I0.000000 J-57.673250
G02 X91.798771 Y91.900070 Z-0.125000 I-8.900610 J-37.156290
G02 X99.427869 Y84.978853 Z-0.125000 I-12.227506 J-21.143395
G02 X101.600001 Y78.215870 Z-0.125000 I-9.442284 J-6.762982
G01 X101.600001 Y78.215870 Z-0.125000
G00 Z5.000000

(End cutting path id: path3336)


(Footer)
M5
G00 X0.0000 Y0.0000
M2
(Using default footer. To add your own footer create file "footer" in the output dir.)
(end)
%