%
(Header)
(Generated by gcodetools from Inkscape.)
(Using default header. To add your own header create file "header" in the output dir.)
M3
(Header end.)
G21 (All units in mm)

(Start cutting path id: path4160)
(Change tool to Default tool)

G00 Z5.000000
G00 X140.266124 Y13.785202

G01 Z-0.125000 F100.0(Penetrate)
G01 X153.460013 Y13.785202 Z-0.125000 F400.000000
G03 X155.168395 Y17.058575 Z-0.125000 I-13.022280 J8.878852
G03 X156.493902 Y21.757972 Z-0.125000 I-25.759870 J9.802439
G02 X157.000248 Y21.908951 Z-0.125000 I0.906081 J-2.114189
G02 X157.693347 Y21.969638 Z-0.125000 I0.693099 J-3.927562
G02 X158.463302 Y21.919636 Z-0.125000 I-0.000000 J-5.952995
G02 X159.316125 Y21.757972 Z-0.125000 I-0.974442 J-7.470720
G01 X158.681125 Y9.692980 Z-0.125000
G01 X127.213347 Y9.692980 Z-0.125000
G01 X127.636680 Y12.303536 Z-0.125000
G03 X131.675313 Y13.142301 Z-0.125000 I-2.806714 J23.656586
G03 X133.986680 Y14.208536 Z-0.125000 I-2.606834 J8.689447
G01 X133.986680 Y52.308527 Z-0.125000
G03 X131.276813 Y53.406182 Z-0.125000 I-6.292810 J-11.641699
G03 X127.213347 Y54.213527 Z-0.125000 I-7.194018 J-25.578729
G02 X127.307029 Y55.057308 Z-0.125000 I15.422259 J-1.285188
G02 X127.566124 Y56.753527 Z-0.125000 I62.618466 J-8.697009
G01 X147.110013 Y56.753527 Z-0.125000
G01 X146.757236 Y54.213527 Z-0.125000
G03 X142.972218 Y53.422485 Z-0.125000 I3.076169 J-24.169903
G03 X140.266124 Y52.308527 Z-0.125000 I3.929756 J-13.390278
G01 X140.266124 Y13.785202 Z-0.125000
G01 X140.266124 Y13.785202 Z-0.125000
G00 Z5.000000

(End cutting path id: path4160)


(Start cutting path id: path4158)
(Change tool to Default tool)

G00 Z5.000000
G00 X111.098017 Y47.016861

G01 Z-0.125000 F100.0(Penetrate)
G01 X110.815795 Y47.016861 Z-0.125000 F400.000000
G01 X96.493017 Y9.692980 Z-0.125000
G01 X92.330239 Y9.692980 Z-0.125000
G01 X77.301906 Y47.651861 Z-0.125000
G01 X77.019684 Y47.651861 Z-0.125000
G01 X77.019684 Y14.208536 Z-0.125000
G03 X79.455140 Y13.187612 Z-0.125000 I5.264999 J9.144472
G03 X83.863573 Y12.303536 Z-0.125000 I8.202450 J29.468062
G01 X83.581351 Y9.692980 Z-0.125000
G01 X65.730795 Y9.692980 Z-0.125000
G01 X66.083573 Y12.303536 Z-0.125000
G03 X70.061766 Y13.127652 Z-0.125000 I-2.895443 J23.990817
G03 X72.504128 Y14.208536 Z-0.125000 I-2.970745 J10.012511
G01 X72.504128 Y52.308527 Z-0.125000
G03 X69.794261 Y53.406182 Z-0.125000 I-6.292810 J-11.641699
G03 X65.730795 Y54.213527 Z-0.125000 I-7.194018 J-25.578729
G01 X66.013017 Y56.753527 Z-0.125000
G01 X79.630239 Y56.753527 Z-0.125000
G01 X95.434684 Y18.371305 Z-0.125000
G01 X110.674684 Y56.753527 Z-0.125000
G01 X124.150795 Y56.753527 Z-0.125000
G03 X123.891699 Y55.057308 Z-0.125000 I62.359371 J-10.393228
G03 X123.798017 Y54.213527 Z-0.125000 I15.328577 J-2.128969
G03 X120.024106 Y53.460054 Z-0.125000 I2.363625 J-21.666560
G03 X117.306906 Y52.308527 Z-0.125000 I3.609215 J-12.298067
G01 X117.306906 Y14.208536 Z-0.125000
G03 X119.742362 Y13.187612 Z-0.125000 I5.264999 J9.144472
G03 X124.150795 Y12.303536 Z-0.125000 I8.202450 J29.468062
G01 X123.868573 Y9.692980 Z-0.125000
G01 X104.254128 Y9.692980 Z-0.125000
G03 X104.524159 Y11.599492 Z-0.125000 I-149.312264 J22.120335
G03 X104.606906 Y12.303536 Z-0.125000 I-20.273679 J2.739686
G03 X108.523714 Y13.113138 Z-0.125000 I-2.989317 J24.341583
G03 X111.098017 Y14.208536 Z-0.125000 I-3.379030 J11.513731
G01 X111.098017 Y47.016861 Z-0.125000
G01 X111.098017 Y47.016861 Z-0.125000
G00 Z5.000000

(End cutting path id: path4158)


(Start cutting path id: path4156)
(Change tool to Default tool)

G00 Z5.000000
G00 X46.516533 Y9.199091

G01 Z-0.125000 F100.0(Penetrate)
G02 X37.101136 Y11.072229 Z-0.125000 I0.000000 J24.599988 F400.000000
G02 X31.699866 Y15.337416 Z-0.125000 I4.839121 J11.680653
G02 X28.682459 Y21.976345 Z-0.125000 I16.017907 J11.285345
G02 X27.325421 Y33.258527 Z-0.125000 I46.220542 J11.282182
G02 X28.702242 Y44.528711 Z-0.125000 I46.815331 J-0.000000
G02 X31.770422 Y51.179638 Z-0.125000 I18.909784 J-4.690223
G02 X37.242675 Y55.509793 Z-0.125000 I10.481005 J-7.622549
G02 X46.587089 Y57.388527 Z-0.125000 I9.344414 J-22.299169
G02 X54.245934 Y56.205849 Z-0.125000 I-0.000000 J-25.390100
G02 X59.075422 Y53.437416 Z-0.125000 I-3.951831 J-12.490607
G02 X60.897359 Y50.930353 Z-0.125000 I-5.704809 J-6.061360
G02 X61.474311 Y48.357416 Z-0.125000 I-5.448572 J-2.572937
G02 X61.096293 Y45.740688 Z-0.125000 I-9.245819 J0.000000
G02 X60.204311 Y44.053527 Z-0.125000 I-4.620465 J1.363416
G02 X58.827573 Y42.862363 Z-0.125000 I-3.631746 J2.806349
G02 X57.452644 Y42.501305 Z-0.125000 I-1.374928 J2.437373
G02 X55.965912 Y42.712162 Z-0.125000 I-0.000000 J5.346841
G02 X54.771533 Y43.277416 Z-0.125000 I1.151266 J3.977102
G02 X53.808711 Y44.180797 Z-0.125000 I2.481768 J3.609845
G02 X53.219311 Y45.252972 Z-0.125000 I2.958128 J2.324243
G03 X54.255776 Y47.321961 Z-0.125000 I-7.285853 J4.943971
G03 X54.559866 Y49.133527 Z-0.125000 I-5.244009 J1.811567
G03 X54.030640 Y50.790962 Z-0.125000 I-2.859995 J0.000000
G03 X52.302089 Y52.308527 Z-0.125000 I-4.073717 J-2.896866
G03 X50.011943 Y53.196299 Z-0.125000 I-3.962730 J-6.824702
G03 X46.445977 Y53.578527 Z-0.125000 I-3.565965 J-16.443063
G03 X42.979270 Y53.128023 Z-0.125000 I-0.000000 J-13.563702
G03 X40.307644 Y51.955750 Z-0.125000 I2.414526 J-9.133207
G03 X38.202597 Y50.094703 Z-0.125000 I4.612968 J-7.338813
G03 X36.568200 Y47.369638 Z-0.125000 I8.592245 J-7.005985
G03 X35.551519 Y44.286705 Z-0.125000 I26.064588 J-10.304604
G03 X34.874866 Y41.019638 Z-0.125000 I28.606395 J-7.628372
G03 X34.574376 Y37.766105 Z-0.125000 I43.088057 J-5.620181
G03 X34.451533 Y33.258527 Z-0.125000 I82.638928 J-4.507578
G03 X34.573277 Y28.750711 Z-0.125000 I83.516342 J-0.000000
G03 X34.874866 Y25.426861 Z-0.125000 I45.680696 J2.469227
G03 X35.547038 Y22.229449 Z-0.125000 I28.757338 J4.376117
G03 X36.568200 Y19.147416 Z-0.125000 I27.733801 J7.478778
G03 X40.254624 Y14.732265 Z-0.125000 I8.569043 J3.408147
G03 X46.516533 Y12.938536 Z-0.125000 I6.261909 J10.033300
G03 X51.301065 Y13.642576 Z-0.125000 I-0.000000 J16.609427
G03 X55.194866 Y15.549083 Z-0.125000 I-3.845327 J12.783155
G01 X55.194866 Y27.896305 Z-0.125000
G03 X52.514265 Y28.741980 Z-0.125000 I-5.448993 J-12.600796
G03 X47.998200 Y29.377972 Z-0.125000 I-7.287962 J-35.398675
G01 X48.280422 Y31.988527 Z-0.125000
G01 X61.474311 Y32.623527 Z-0.125000
G01 X61.474311 Y12.656313 Z-0.125000
G02 X54.947633 Y10.160763 Z-0.125000 I-12.243395 J22.238003
G02 X46.516533 Y9.199091 Z-0.125000 I-8.431100 J36.477414
G01 X46.516533 Y9.199091 Z-0.125000
G00 Z5.000000

(End cutting path id: path4156)


(Footer)
M5
G00 X0.0000 Y0.0000
M2
(Using default footer. To add your own footer create file "footer" in the output dir.)
(end)
%