%
(Header)
(Generated by gcodetools from Inkscape.)
(Using default header. To add your own header create file "header" in the output dir.)
M3
(Header end.)
G21 (All units in mm)

(Start cutting path id: path3336)
(Change tool to Default tool)

G00 Z5.000000
G00 X18.546032 Y15.320635

G01 Z-0.125000 F100.0(Penetrate)
G03 X59.846408 Y14.610184 Z-0.125000 I32.601686 J694.416348 F400.000000
G03 X97.769842 Y16.530161 Z-0.125000 I-6.241599 J498.776484
G03 X126.355324 Y20.593227 Z-0.125000 I-24.341222 J273.838694
G03 X141.010318 Y26.206352 Z-0.125000 I-8.823320 J44.973831
G03 X146.019686 Y30.868031 Z-0.125000 I-8.344323 J13.989013
G03 X147.265825 Y35.693553 Z-0.125000 I-5.845984 J4.083324
G03 X145.379423 Y40.586331 Z-0.125000 I-10.003801 J-1.046909
G03 X137.079367 Y49.187302 Z-0.125000 I-35.600699 J-26.049848
G03 X74.723667 Y64.083085 Z-0.125000 I-47.297626 J-60.031601
G03 X22.577778 Y38.704761 Z-0.125000 I22.683620 J-112.871286
G01 X88.698412 Y39.511113 Z-0.125000
G00 Z5.000000

(End cutting path id: path3336)


(Footer)
M5
G00 X0.0000 Y0.0000
M2
(Using default footer. To add your own footer create file "footer" in the output dir.)
(end)
%